src/icons/page.svg

<svg xmlns="http://www.w3.org/2000/svg" width="24" height="24" fill="none"><path fill="currentColor" d="M16 7H7v2h9zm-2 4H7v2h7zm-7 4h9v2H7z"/><path fill="currentColor" fill-rule="evenodd" d="M3 1h18v22H3zm2 2h14v18H5z" clip-rule="evenodd"/></svg>

<svg width="24" height="24" viewBox="0 0 24 24" fill="none" xmlns="http://www.w3.org/2000/svg">
<path d="M16 7H7V9H16V7Z" fill="black"/>
<path d="M14 11H7V13H14V11Z" fill="black"/>
<path d="M7 15H16V17H7V15Z" fill="black"/>
<path fill-rule="evenodd" clip-rule="evenodd" d="M3 1H21V23H3V1ZM5 3H19V21H5V3Z" fill="black"/>
</svg>
